contributed-vectors/papers_please.svg

<?xml version="1.0" encoding="UTF-8" standalone="no"?>
<svg
   xmlns:dc="http://purl.org/dc/elements/1.1/"
   xmlns:cc="http://creativecommons.org/ns#"
   xmlns:rdf="http://www.w3.org/1999/02/22-rdf-syntax-ns#"
   xmlns:svg="http://www.w3.org/2000/svg"
   xmlns="http://www.w3.org/2000/svg"
   xmlns:sodipodi="http://sodipodi.sourceforge.net/DTD/sodipodi-0.dtd"
   xmlns:inkscape="http://www.inkscape.org/namespaces/inkscape"
   viewBox="0 0 192 192"
   version="1.1"
   id="svg16"
   sodipodi:docname="papers-please.svg"
   inkscape:version="0.92.4 (5da689c313, 2019-01-14)">
  <metadata
     id="metadata20">
    <rdf:RDF>
      <cc:Work
         rdf:about="">
        <dc:format>image/svg+xml</dc:format>
        <dc:type
           rdf:resource="http://purl.org/dc/dcmitype/StillImage" />
        <dc:title></dc:title>
      </cc:Work>
    </rdf:RDF>
  </metadata>
  <sodipodi:namedview
     pagecolor="#ffffff"
     bordercolor="#666666"
     borderopacity="1"
     objecttolerance="10"
     gridtolerance="10"
     guidetolerance="10"
     inkscape:pageopacity="0"
     inkscape:pageshadow="2"
     inkscape:window-width="1920"
     inkscape:window-height="1017"
     id="namedview18"
     showgrid="true"
     inkscape:zoom="3.4766083"
     inkscape:cx="162.60984"
     inkscape:cy="94.551529"
     inkscape:window-x="-8"
     inkscape:window-y="-8"
     inkscape:window-maximized="1"
     inkscape:current-layer="svg16">
    <inkscape:grid
       type="xygrid"
       id="grid827"
       spacingx="4"
       spacingy="4" />
  </sodipodi:namedview>
  <defs
     id="defs4">
    <style
       id="style2">.a{fill:none;stroke:#b1b5bd;stroke-linecap:round;stroke-linejoin:round;isolation:isolate;opacity:0.63;}</style>
  </defs>
  <rect
     class="a"
     x="20"
     y="20"
     width="152"
     height="152"
     rx="10"
     id="rect6"
     style="fill:#56595b;stroke:none;opacity:1" />
  <path
     style="fill:#ff837d;stroke:none;stroke-width:1px;stroke-linecap:butt;stroke-linejoin:miter;stroke-opacity:1"
     d="M 34.048828 64 L 82.048828 112 L 82.048828 120 L 78.048828 120 L 78.048828 126.5625 L 80.611328 124 L 84.097656 124 L 84.097656 128 L 82.048828 130.04883 L 86.048828 130.04883 L 96 140 L 105.95117 130.04883 L 109.95117 130.04883 L 107.90234 128 L 107.90234 124 L 111.38867 124 L 113.95117 126.5625 L 113.95117 120 L 109.95117 120 L 109.95117 112 L 157.95117 64 L 121.31641 64 L 111.68945 73.626953 L 111.68945 82.263672 L 109.95117 84 L 104 84 L 104 76 L 108 72 L 105.59375 72 L 101.59375 76 L 100 76 L 100 73.966797 L 105.9668 68 L 108 68 L 104 64 L 100 64 L 96 68 L 92 68 L 90.048828 69.865234 L 90.048828 84 L 82.048828 84 L 80.310547 82.263672 L 80.310547 73.626953 L 70.683594 64 L 34.048828 64 z "
     id="path829" />
  <path
     style="fill:#71a372;stroke:none;stroke-width:1px;stroke-linecap:butt;stroke-linejoin:miter;stroke-opacity:1"
     d="M 32,76 44,88 H 20 V 76 Z"
     id="path850"
     inkscape:connector-curvature="0"
     sodipodi:nodetypes="ccccc" />
  <path
     style="fill:#71a372"
     d="m 48,92 12,12 H 20 V 92 Z"
     id="path852"
     inkscape:connector-curvature="0"
     sodipodi:nodetypes="ccccc" />
  <path
     style="fill:#71a372;stroke:none;stroke-width:1px;stroke-linecap:butt;stroke-linejoin:miter;stroke-opacity:1"
     d="M 20,108 H 64 L 74.35492,117.56392 72,120 H 20 Z"
     id="path854"
     inkscape:connector-curvature="0"
     sodipodi:nodetypes="cccccc" />
  <path
     style="fill:#56595b;stroke:none;stroke-width:1px;stroke-linecap:butt;stroke-linejoin:miter;stroke-opacity:1"
     d="M 96 87.228516 L 92 92 L 88 92 L 84 88 L 84 108 L 96 120 L 108 108 L 108 88 L 104 92 L 100 92 L 96 87.228516 z "
     id="path856" />
  <path
     style="fill:#ff837d;stroke:none;stroke-width:1px;stroke-linecap:butt;stroke-linejoin:miter;stroke-opacity:1"
     d="m 90.085366,108 v -4 l 8,-8 h 4.000004 v 4 l -8.000004,8 z"
     id="path858"
     inkscape:connector-curvature="0" />
  <path
     style="fill:#71a372;stroke:none;stroke-width:1px;stroke-linecap:butt;stroke-linejoin:miter;stroke-opacity:1"
     d="m 160,76 -12,12 h 24 V 76 Z"
     id="path850-5"
     inkscape:connector-curvature="0"
     sodipodi:nodetypes="ccccc" />
  <path
     style="fill:#71a372"
     d="m 144,92 -12,12 h 40 V 92 Z"
     id="path852-6"
     inkscape:connector-curvature="0"
     sodipodi:nodetypes="ccccc" />
  <path
     style="fill:#71a372;stroke:none;stroke-width:1px;stroke-linecap:butt;stroke-linejoin:miter;stroke-opacity:1"
     d="M 172,108 H 128 L 117.64508,117.56392 120,120 h 52 z"
     id="path854-8"
     inkscape:connector-curvature="0"
     sodipodi:nodetypes="cccccc" />
</svg>

<svg xmlns="http://www.w3.org/2000/svg" viewBox="0 0 192 192"><rect width="152" height="152" x="20" y="20" rx="10" style="fill:#56595b;stroke:none;opacity:1;stroke-linecap:round;stroke-linejoin:round;isolation:isolate"/><path d="m34.049 64 48 48v8h-4v6.563L80.61 124h3.487v4l-2.05 2.049h4L96 140l9.951-9.951h4L107.902 128v-4h3.487l2.562 2.563V120h-4v-8l48-48h-36.635l-9.627 9.627v8.637L109.951 84H104v-8l4-4h-2.406l-4 4H100v-2.033L105.967 68H108l-4-4h-4l-4 4h-4l-1.951 1.865V84h-8l-1.738-1.736v-8.637L70.684 64H34.049z" style="fill:#ff837d;stroke:none;stroke-width:1px;stroke-linecap:butt;stroke-linejoin:miter;stroke-opacity:1"/><path d="m32 76 12 12H20V76Z" style="fill:#71a372;stroke:none;stroke-width:1px;stroke-linecap:butt;stroke-linejoin:miter;stroke-opacity:1"/><path d="m48 92 12 12H20V92Z" style="fill:#71a372"/><path d="M20 108h44l10.355 9.564L72 120H20Z" style="fill:#71a372;stroke:none;stroke-width:1px;stroke-linecap:butt;stroke-linejoin:miter;stroke-opacity:1"/><path d="M96 87.229 92 92h-4l-4-4v20l12 12 12-12V88l-4 4h-4l-4-4.771z" style="fill:#56595b;stroke:none;stroke-width:1px;stroke-linecap:butt;stroke-linejoin:miter;stroke-opacity:1"/><path d="M90.085 108v-4l8-8h4v4l-8 8z" style="fill:#ff837d;stroke:none;stroke-width:1px;stroke-linecap:butt;stroke-linejoin:miter;stroke-opacity:1"/><path d="m160 76-12 12h24V76Z" style="fill:#71a372;stroke:none;stroke-width:1px;stroke-linecap:butt;stroke-linejoin:miter;stroke-opacity:1"/><path d="m144 92-12 12h40V92Z" style="fill:#71a372"/><path d="M172 108h-44l-10.355 9.564L120 120h52z" style="fill:#71a372;stroke:none;stroke-width:1px;stroke-linecap:butt;stroke-linejoin:miter;stroke-opacity:1"/></svg>
